X: 731
T: Aileen Bonner's
R: polka
M: 2/4
K: Gmajor
|:B>A|GB G/A/B|d2 g>e|fd dc|AB cB/A/|
GB GB|d2 g>e|fd c/B/A|G2:|
|:G>g|fd fa|g2 a>g|fd f/g/a|g2 ga|
bg a/g/f|g/a/g/f/ d>B|ce dB|G2:|

